X:122
T:RVW2/2/122 The Lost Lady
C:Mr. Woolford, Ramsbury, Wiltshire, 27 August 1904
L:1/8
Q:1/4=60
M:6/8
I:linebreak $
K:G
"^(Editorial suggestion  " D | GBG AcB/B/ | cde d2 B | dcA cBG |$ AcF G2 || D | GBG AcB | 
w: 'Twas|down in a val- ley a young|dam- sel did dwell. She|dwelt with her fa- ther as|all know full well.|'Twas|down in a va.- ley where|
cde d2 B |$ dcA cBG | AcF G2 |] 
w: vio- lets are gay Three|gyp- sies be- trayed her and|stole her a- way.|



